X: 10632
T: THE NUT -- Contre Dance
R: jig
B: K\"ohler's Violin Repository, v.1, 1885 p.63 #2
F: http://www.archive.org/details/klersviolinrepos01edin
Z: 2012 John Chambers <jc:trillian.mit.edu>
M: 6/8
L: 1/8
K: Bb
uF !segno!|\
BcB Bed | dcB (.B2.g) | gfe dcB | dcc (.c2.F) |\
BcB Bed | dgf fba | agA ABc | cBB B2 :||: vA/uB/ |
cdc cff | =eBd (.c2.c) | cdc cAF | AGG GAB |\
cdc cff | =eBd (.c2.c) | d=ef gfe | fgf ecA !segno!"_D.C."|]

%%sep 2 1 500

